X:23
T:Bonnie Lassie
Z:Jack Campin - http://www.campin.me.uk
S:Blaikie MS (NLS MS.1578) p9, Blaikie #22
M:C
L:1/4
V:1 midi program 1 74
V:2 midi program 1 46 bass middle = d transpose -24
Q:1/4=112
K:F
[V:1] FBBc|d/e/f A2|G   G    G   F   | G2     d2:|
[V:2] BBdf|b   a f2|g   g    g   d   |_e2     d2:|
%
[V:1] dBBc|d   e f2|e   c    c   d   | c d/e/ f2 |
[V:2] BBdf|B2    A2|c2       c2      | c'b    a2 |
%
[V:1] AFFA|G  E  EG|F/G/A/B/ c/B/A/G/| F2     c2|]
[V:2] f2f2|d2    c2|f2       c2      | f2     F2|]
W:Transcription (c) Jack Campin 2009, no mirroring or republication without permission

